X:938
T:Reel 938
M:4/4
K:Dmaj
L:1/8
AG|:F>D (3DDD DEDB,|A,B,DF GFED|G>E (3EEE EFED|B,>EEE EBAGE (3GFE |DdDD DB,B,B,|A,DDF GFED|GEFA BGFE|FDEC D2:||:A2|dedB Adcd|eded edBd|Addc dedB|AFDF E2FG|Addc d2cd|edcd BdAF|G2GE FEFG|AFEF D2|
